X: 365
T:Lourdault, Lourdault
N: Derived from Jos2824-Lourdault_Lourdault.krn
C: Josquin des Prez
%%abc-version 2.0
%%abcx-abcm2ps-target-version 5.9.1 (29 Sep 2008)
%%abc-creator hum2abc beta
%%abcx-conversion-date 2019/02/12 16:15:54
%%abc-edited-by Jesse Rodin
%%abc-edited-by Will Watson 23/10/2011
%%abcx-initial-encoding-date 2011/10/23/
%%humdrum-veritas 2128818178
%%humdrum-veritas-data 1403646916
%%linebreak <none>
%%barnumbers 0
L: 1/4
M: 2/1
Q: 1/2=120
%%staves [1 2 3 4]
V: 1 clef=treble
V: 2 clef=treble-8
V: 3 clef=treble-8
V: 4 clef=bass
K: F
[V:1] z8 | 
[V:2] z8 | 
[V:3] z4A4 | 
[V:4] z8 | 
[V:1] z8 | 
[V:2] z8 | 
[V:3] B6A2 | 
[V:4] z4D,4 | 
[V:1] z8 | 
[V:2] z8 | 
[V:3] G4B4 | 
[V:4] _E,6D,2 | 
[V:1] z8 | 
[V:2] z8 | 
[V:3] c6c/B/A/G/ | 
[V:4] C,4_E,4 | 
[V:1] z8 | 
[V:2] z8 | 
[V:3] F8 | 
[V:4] F,6F,/_E,/D,/C,/ | 
[V:1] z8 | 
[V:2] z8 | 
[V:3] z4B4 | 
[V:4] B,,4z2B,,2 | 
[V:1] z8 | 
[V:2] z8 | 
[V:3] A4G4 | 
[V:4] C,2D,2B,,2C,2- | 
[V:1] z4A4 | 
[V:2] z8 | 
[V:3] G4^F4 | 
[V:4] C,B,,G,,2A,,4 | 
[V:1] B6A2 | 
[V:2] z4d4 | 
[V:3] G8 | 
[V:4] G,,8 | 
[V:1] G4B4 | 
[V:2] _e6d2 | 
[V:3] z8 | 
[V:4] z8 | 
[V:1] c6c/B/A/G/ | 
[V:2] c4_e4 | 
[V:3] z8 | 
[V:4] z8 | 
[V:1] F8 | 
[V:2] f6f/_e/d/c/ | 
[V:3] z8 | 
[V:4] z8 | 
[V:1] z4B4 | 
[V:2] B4z4 | 
[V:3] z2d4B2 | 
[V:4] G,8 | 
[V:1] A4G4 | 
[V:2] f4_e2_e2 | 
[V:3] c2d2B2c2- | 
[V:4] F,2D,2_E,2C,2 | 
[V:1] G4^F4 | 
[V:2] c2c2d4- | 
[V:3] cBG2A4 | 
[V:4] _E,4D,4 | 
[V:1] G8 | 
[V:2] d2B3cd2- | 
[V:3] G8 | 
[V:4] z4G,,4 | 
[V:1] z8 | 
[V:2] d2cBcBAG | 
[V:3] z8 | 
[V:4] B,,4A,,4 | 
[V:1] z8 | 
[V:2] F2G2E4 | 
[V:3] z4G4 | 
[V:4] B,,4C,4 | 
[V:1] z8 | 
[V:2] F4z2F2- | 
[V:3] B4A4 | 
[V:4] D,4D,2D,2 | 
[V:1] z4G4 | 
[V:2] FDF4E2 | 
[V:3] B4c4 | 
[V:4] D,2D,2C,2C,2 | 
[V:1] B4A4 | 
[V:2] F8 | 
[V:3] d4d2d2 | 
[V:4] B,,4z2D,2- | 
[V:1] B4c4 | 
[V:2] z2F2G2A2 | 
[V:3] d2d2c2c2 | 
[V:4] D,C,B,,4A,,2 | 
[V:1] d4d2d2 | 
[V:2] F4G2F2- | 
[V:3] B8 | 
[V:4] B,,4z2B,,2- | 
[V:1] d2d2c2c2 | 
[V:2] F2f3ef2 | 
[V:3] z2B4A2 | 
[V:4] B,,C,D,E,F,2F,2 | 
[V:1] B2AGF2c2- | 
[V:2] d2A2B2c2 | 
[V:3] B2c2d2_e2 | 
[V:4] G,2F,E,D,2C,2 | 
[V:1] cBB4A2 | 
[V:2] d2e2f4 | 
[V:3] d2B2c4 | 
[V:4] G,4F,4 | 
[V:1] B8 | 
[V:2] f2g4fe | 
[V:3] B4z4 | 
[V:4] D,2_E,4D,C, | 
[V:1] z4d4 | 
[V:2] f4g4 | 
[V:3] d4d4- | 
[V:4] B,,4G,,4 | 
[V:1] d6c2 | 
[V:2] z4g4 | 
[V:3] d2c2B2A2 | 
[V:4] z2G,2G,4- | 
[V:1] B2A2G4 | 
[V:2] g6f2 | 
[V:3] G4G4 | 
[V:4] G,2F,2E,2D,2 | 
[V:1] G4G4 | 
[V:2] e2d2c4 | 
[V:3] G4c4- | 
[V:4] C,4C,4 | 
[V:1] c6B2 | 
[V:2] c4c4 | 
[V:3] c2B2A2G2 | 
[V:4] C,4F,4- | 
[V:1] A2G2F4- | 
[V:2] f6e2 | 
[V:3] F8 | 
[V:4] F,2E,2D,2C,2 | 
[V:1] F4F4 | 
[V:2] d2c2B2B2 | 
[V:3] z4d4 | 
[V:4] B,,4B,,4 | 
[V:1] !fermata!B8 | 
[V:2] !fermata!f8 | 
[V:3] !fermata!d8 | 
[V:4] !fermata!B,,8 | 
[V:1] z4B4 | 
[V:2] z8 | 
[V:3] B4B4- | 
[V:4] z8 | 
[V:1] B6B2 | 
[V:2] z4_e4 | 
[V:3] B2B2G4- | 
[V:4] _E,4E,4- | 
[V:1] G6AB | 
[V:2] _e6_e2 | 
[V:3] G2ABc4- | 
[V:4] E,2_E,2C,4- | 
[V:1] c6c/B/A/G/ | 
[V:2] c6d_e | 
[V:3] c2c/B/A/G/F4 | 
[V:4] C,2D,_E,F,4- | 
[V:1] F8 | 
[V:2] f6f/_e/d/c/ | 
[V:3] z4B3c | 
[V:4] F,2F,/_E,/D,/C,/B,,4 | 
[V:1] z4B4 | 
[V:2] B4z2d2 | 
[V:3] d_ed4B2 | 
[V:4] G,,4z2G,2- | 
[V:1] A4G4 | 
[V:2] e2f2d2_e2- | 
[V:3] c2d2B2c2- | 
[V:4] G,2F,2G,2C,2- | 
[V:1] G4^F4 | 
[V:2] e2dcd4- | 
[V:3] cBG2A4 | 
[V:4] C,D,_E,2D,4 | 
[V:1] G8 | 
[V:2] d4z2B2 | 
[V:3] G8 | 
[V:4] z4_E,3D, | 
[V:1] z8 | 
[V:2] A2G2G2^F2 | 
[V:3] z8 | 
[V:4] C,2B,,2A,,4 | 
[V:1] z8 | 
[V:2] G2F3ED2- | 
[V:3] z2B2A2G2 | 
[V:4] G,,2D,3C,B,,2 | 
[V:1] z4z2B2 | 
[V:2] D2C2D4 | 
[V:3] G2F2G2d2 | 
[V:4] A,,4G,,4 | 
[V:1] A2G2G2F2 | 
[V:2] z2d2e2d2- | 
[V:3] c2B2A2A2 | 
[V:4] A,,2B,,2C,2D,2 | 
[V:1] B6B2 | 
[V:2] dcBAG2B2 | 
[V:3] G3ABcd2- | 
[V:4] G,,4z2G,2 | 
[V:1] A2G2G2F2 | 
[V:2] c2G2A4 | 
[V:3] d2c2d4 | 
[V:4] F,2E,2D,4 | 
[V:1] B6B2 | 
[V:2] G3ABcde | 
[V:3] z2d4B2 | 
[V:4] G,6G,2 | 
[V:1] A2A2G2G2- | 
[V:2] f4z2_e2 | 
[V:3] c2d2B2c2 | 
[V:4] F,2D,2_E,2C,2 | 
[V:1] G2FEG2^F2 | 
[V:2] c4d4 | 
[V:3] G4A4 | 
[V:4] _E,4D,4 | 
[V:1] G8- | 
[V:2] d8 | 
[V:3] G8- | 
[V:4] G,,8- | 
[V:1] G8 |]  
[V:2] d8 |]  
[V:3] G8 |]  
[V:4] G,,8 |]  



